X:1
T:Careless Love
M:4/4
L:1/4
K:F
 A3 F| E C E G| F4-| F2 z2| A3 B| c c d c| G4-| G2 A B| A3 B| c2 c2|\
 d2 B2| F2 G- ^G| A3 F| E C E G| F4-| F2 z2|
